Simply-Blue-Circles/scalable/apps/skrooge.svg

<svg xmlns="http://www.w3.org/2000/svg" width="48" height="48" viewBox="0 0 12.7 12.7"><path d="M6.35.083A6.267 6.267 0 0 0 .084 6.35a6.267 6.267 0 0 0 6.268 6.267 6.267 6.267 0 0 0 6.266-6.267A6.267 6.267 0 0 0 6.351.083zm-.017.932a5.388 5.388 0 0 1 5.388 5.39 5.388 5.388 0 0 1-5.388 5.387 5.388 5.388 0 0 1-5.39-5.388 5.388 5.388 0 0 1 5.39-5.389zm.393 1.178A4.158 4.158 0 0 0 2.874 4.79h-.825l-.52 1.04h1.077a4.176 4.176 0 0 0-.038.519L2.05 7.39h.657a4.158 4.158 0 0 0 4.02 3.117 4.157 4.157 0 0 0 3.245-1.559H8.447c-.51.339-1.109.52-1.72.52A3.118 3.118 0 0 1 3.79 7.39h3.456l.52-1.039H3.607c0-.174.016-.348.047-.52h4.11l.52-1.04H4.029a3.119 3.119 0 0 1 2.697-1.558c.612 0 1.21.182 1.72.52h1.52a4.157 4.157 0 0 0-3.24-1.56z" fill="#2c89a0"/></svg>

<?xml version="1.0" encoding="UTF-8" standalone="no"?>
<svg
   xmlns:dc="http://purl.org/dc/elements/1.1/"
   xmlns:cc="http://creativecommons.org/ns#"
   xmlns:rdf="http://www.w3.org/1999/02/22-rdf-syntax-ns#"
   xmlns:svg="http://www.w3.org/2000/svg"
   xmlns="http://www.w3.org/2000/svg"
   xmlns:sodipodi="http://sodipodi.sourceforge.net/DTD/sodipodi-0.dtd"
   xmlns:inkscape="http://www.inkscape.org/namespaces/inkscape"
   width="48"
   height="48"
   viewBox="0 0 12.7 12.7"
   version="1.1"
   id="svg4"
   sodipodi:docname="skrooge.svg"
   inkscape:version="0.92.4 (5da689c313, 2019-01-14)">
  <metadata
     id="metadata10">
    <rdf:RDF>
      <cc:Work
         rdf:about="">
        <dc:format>image/svg+xml</dc:format>
        <dc:type
           rdf:resource="http://purl.org/dc/dcmitype/StillImage" />
        <dc:title></dc:title>
      </cc:Work>
    </rdf:RDF>
  </metadata>
  <defs
     id="defs8" />
  <sodipodi:namedview
     pagecolor="#ffffff"
     bordercolor="#666666"
     borderopacity="1"
     objecttolerance="10"
     gridtolerance="10"
     guidetolerance="10"
     inkscape:pageopacity="0"
     inkscape:pageshadow="2"
     inkscape:window-width="1087"
     inkscape:window-height="480"
     id="namedview6"
     showgrid="false"
     inkscape:zoom="4.9166667"
     inkscape:cx="2.1355932"
     inkscape:cy="24"
     inkscape:window-x="0"
     inkscape:window-y="25"
     inkscape:window-maximized="0"
     inkscape:current-layer="svg4" />
  <path
     d="M 6.35,0.083 A 6.267,6.267 0 0 0 0.084,6.35 6.267,6.267 0 0 0 6.352,12.617 6.267,6.267 0 0 0 12.618,6.35 6.267,6.267 0 0 0 6.351,0.083 Z M 6.333,1.015 a 5.388,5.388 0 0 1 5.388,5.39 5.388,5.388 0 0 1 -5.388,5.387 5.388,5.388 0 0 1 -5.39,-5.388 5.388,5.388 0 0 1 5.39,-5.389 z M 6.726,2.193 A 4.158,4.158 0 0 0 2.874,4.79 H 2.049 L 1.529,5.83 H 2.606 A 4.176,4.176 0 0 0 2.568,6.349 L 2.05,7.39 h 0.657 a 4.158,4.158 0 0 0 4.02,3.117 4.157,4.157 0 0 0 3.245,-1.559 H 8.447 c -0.51,0.339 -1.109,0.52 -1.72,0.52 A 3.118,3.118 0 0 1 3.79,7.39 H 7.246 L 7.766,6.351 H 3.607 c 0,-0.174 0.016,-0.348 0.047,-0.52 h 4.11 l 0.52,-1.04 H 4.029 A 3.119,3.119 0 0 1 6.726,3.233 c 0.612,0 1.21,0.182 1.72,0.52 h 1.52 a 4.157,4.157 0 0 0 -3.24,-1.56 z"
     id="path2"
     inkscape:connector-curvature="0"
     style="fill:#2c89a0" />
</svg>
